X: 18155
T: Humours Of Derrycrossane, The
R: slip jig
M: 9/8
K: Dmajor
AG|:FGF FAF G2 E|FED FAF EFG|
FED FAF G2 B|1 AFD DED D2 A:|2 AFD DED D2||
|:c|ded BAG FGA|BGE EFE EFE|
[1 ded BAG FGA|dAF DED D2:|
[2 ABc dcB ABc|dfd edc d||

